content/blogs/regnskap/hva-er-grunnbelop/grunnbelop-justering.svg

<svg xmlns="http://www.w3.org/2000/svg" width="800" height="500" viewBox="0 0 800 500"><path fill="#f8f9fa" d="M0 0h800v500H0z"/><text x="400" y="30" fill="#2c3e50" font-family="Arial, sans-serif" font-size="24" font-weight="bold" text-anchor="middle">
    Grunnbeløpets Justeringsmekanisme
  </text><rect width="400" height="60" x="200" y="60" fill="#3498db" stroke="#2980b9" stroke-width="2" rx="10"/><text x="400" y="85" fill="#fff" font-family="Arial, sans-serif" font-size="16" font-weight="bold" text-anchor="middle">
    Nytt G = Gammelt G × (1 + lønnsvekst)
  </text><text x="400" y="105" fill="#fff" font-family="Arial, sans-serif" font-size="12" text-anchor="middle">
    Justeres årlig 1. mai
  </text><path stroke="#34495e" stroke-width="3" d="M100 200h600"/><circle cx="200" cy="200" r="8" fill="#e74c3c"/><text x="200" y="230" fill="#2c3e50" font-family="Arial, sans-serif" font-size="12" font-weight="bold" text-anchor="middle">
    2023
  </text><text x="200" y="245" fill="#7f8c8d" font-family="Arial, sans-serif" font-size="11" text-anchor="middle">
    118 620 kr
  </text><circle cx="400" cy="200" r="8" fill="#f39c12"/><text x="400" y="230" fill="#2c3e50" font-family="Arial, sans-serif" font-size="12" font-weight="bold" text-anchor="middle">
    2024
  </text><text x="400" y="245" fill="#7f8c8d" font-family="Arial, sans-serif" font-size="11" text-anchor="middle">
    124 028 kr
  </text><circle cx="600" cy="200" r="8" fill="#27ae60"/><text x="600" y="230" fill="#2c3e50" font-family="Arial, sans-serif" font-size="12" font-weight="bold" text-anchor="middle">
    2025
  </text><text x="600" y="245" fill="#7f8c8d" font-family="Arial, sans-serif" font-size="11" text-anchor="middle">
    ? kr
  </text><path fill="none" stroke="#e74c3c" stroke-width="2" d="M220 180h60l-5-5m5 5-5 5"/><text x="250" y="175" fill="#e74c3c" font-family="Arial, sans-serif" font-size="10" text-anchor="middle">
    +5,4%
  </text><path fill="none" stroke="#f39c12" stroke-width="2" d="M420 180h60l-5-5m5 5-5 5"/><text x="450" y="175" fill="#f39c12" font-family="Arial, sans-serif" font-size="10" text-anchor="middle">
    +?%
  </text><rect width="200" height="120" x="50" y="300" fill="#ecf0f1" stroke="#bdc3c7" stroke-width="2" rx="10"/><text x="150" y="325" fill="#2c3e50" font-family="Arial, sans-serif" font-size="14" font-weight="bold" text-anchor="middle">
    Påvirkningsfaktorer
  </text><text x="150" y="345" fill="#34495e" font-family="Arial, sans-serif" font-size="12" text-anchor="middle">
    • Lønnsvekst
  </text><text x="150" y="365" fill="#34495e" font-family="Arial, sans-serif" font-size="12" text-anchor="middle">
    • Prisstigning
  </text><text x="150" y="385" fill="#34495e" font-family="Arial, sans-serif" font-size="12" text-anchor="middle">
    • Økonomisk utvikling
  </text><text x="150" y="405" fill="#34495e" font-family="Arial, sans-serif" font-size="12" text-anchor="middle">
    • Stortingets vedtak
  </text><rect width="200" height="120" x="550" y="300" fill="#ecf0f1" stroke="#bdc3c7" stroke-width="2" rx="10"/><text x="650" y="325" fill="#2c3e50" font-family="Arial, sans-serif" font-size="14" font-weight="bold" text-anchor="middle">
    Beslutningsprosess
  </text><text x="650" y="345" fill="#34495e" font-family="Arial, sans-serif" font-size="12" text-anchor="middle">
    1. Regjeringens forslag
  </text><text x="650" y="365" fill="#34495e" font-family="Arial, sans-serif" font-size="12" text-anchor="middle">
    2. Stortingets behandling
  </text><text x="650" y="385" fill="#34495e" font-family="Arial, sans-serif" font-size="12" text-anchor="middle">
    3. Vedtak og ikrafttredelse
  </text><text x="650" y="405" fill="#34495e" font-family="Arial, sans-serif" font-size="12" text-anchor="middle">
    4. Implementering 1. mai
  </text><path fill="none" stroke="#95a5a6" stroke-width="2" d="m250 360 100-140-5 5m5-5-5-5M550 360 450 220l5 5m-5-5 5-5"/><rect width="200" height="30" x="300" y="450" fill="#e8f5e8" stroke="#27ae60" rx="5"/><text x="400" y="470" fill="#27ae60" font-family="Arial, sans-serif" font-size="12" text-anchor="middle">
    Påvirker millioner av nordmenn
  </text></svg>

<svg width="800" height="500" viewBox="0 0 800 500" xmlns="http://www.w3.org/2000/svg">

  <rect width="800" height="500" fill="#f8f9fa"/>
  

  <text x="400" y="30" text-anchor="middle" font-family="Arial, sans-serif" font-size="24" font-weight="bold" fill="#2c3e50">
    Grunnbeløpets Justeringsmekanisme
  </text>
  

  <rect x="200" y="60" width="400" height="60" fill="#3498db" stroke="#2980b9" stroke-width="2" rx="10"/>
  <text x="400" y="85" text-anchor="middle" font-family="Arial, sans-serif" font-size="16" font-weight="bold" fill="white">
    Nytt G = Gammelt G × (1 + lønnsvekst)
  </text>
  <text x="400" y="105" text-anchor="middle" font-family="Arial, sans-serif" font-size="12" fill="white">
    Justeres årlig 1. mai
  </text>
  

  <line x1="100" y1="200" x2="700" y2="200" stroke="#34495e" stroke-width="3"/>
  

  <circle cx="200" cy="200" r="8" fill="#e74c3c"/>
  <text x="200" y="230" text-anchor="middle" font-family="Arial, sans-serif" font-size="12" font-weight="bold" fill="#2c3e50">
    2023
  </text>
  <text x="200" y="245" text-anchor="middle" font-family="Arial, sans-serif" font-size="11" fill="#7f8c8d">
    118 620 kr
  </text>
  
  <circle cx="400" cy="200" r="8" fill="#f39c12"/>
  <text x="400" y="230" text-anchor="middle" font-family="Arial, sans-serif" font-size="12" font-weight="bold" fill="#2c3e50">
    2024
  </text>
  <text x="400" y="245" text-anchor="middle" font-family="Arial, sans-serif" font-size="11" fill="#7f8c8d">
    124 028 kr
  </text>
  
  <circle cx="600" cy="200" r="8" fill="#27ae60"/>
  <text x="600" y="230" text-anchor="middle" font-family="Arial, sans-serif" font-size="12" font-weight="bold" fill="#2c3e50">
    2025
  </text>
  <text x="600" y="245" text-anchor="middle" font-family="Arial, sans-serif" font-size="11" fill="#7f8c8d">
    ? kr
  </text>
  

  <path d="M 220 180 L 280 180 L 275 175 M 280 180 L 275 185" stroke="#e74c3c" stroke-width="2" fill="none"/>
  <text x="250" y="175" text-anchor="middle" font-family="Arial, sans-serif" font-size="10" fill="#e74c3c">
    +5,4%
  </text>
  
  <path d="M 420 180 L 480 180 L 475 175 M 480 180 L 475 185" stroke="#f39c12" stroke-width="2" fill="none"/>
  <text x="450" y="175" text-anchor="middle" font-family="Arial, sans-serif" font-size="10" fill="#f39c12">
    +?%
  </text>
  

  <rect x="50" y="300" width="200" height="120" fill="#ecf0f1" stroke="#bdc3c7" stroke-width="2" rx="10"/>
  <text x="150" y="325" text-anchor="middle" font-family="Arial, sans-serif" font-size="14" font-weight="bold" fill="#2c3e50">
    Påvirkningsfaktorer
  </text>
  <text x="150" y="345" text-anchor="middle" font-family="Arial, sans-serif" font-size="12" fill="#34495e">
    • Lønnsvekst
  </text>
  <text x="150" y="365" text-anchor="middle" font-family="Arial, sans-serif" font-size="12" fill="#34495e">
    • Prisstigning
  </text>
  <text x="150" y="385" text-anchor="middle" font-family="Arial, sans-serif" font-size="12" fill="#34495e">
    • Økonomisk utvikling
  </text>
  <text x="150" y="405" text-anchor="middle" font-family="Arial, sans-serif" font-size="12" fill="#34495e">
    • Stortingets vedtak
  </text>
  

  <rect x="550" y="300" width="200" height="120" fill="#ecf0f1" stroke="#bdc3c7" stroke-width="2" rx="10"/>
  <text x="650" y="325" text-anchor="middle" font-family="Arial, sans-serif" font-size="14" font-weight="bold" fill="#2c3e50">
    Beslutningsprosess
  </text>
  <text x="650" y="345" text-anchor="middle" font-family="Arial, sans-serif" font-size="12" fill="#34495e">
    1. Regjeringens forslag
  </text>
  <text x="650" y="365" text-anchor="middle" font-family="Arial, sans-serif" font-size="12" fill="#34495e">
    2. Stortingets behandling
  </text>
  <text x="650" y="385" text-anchor="middle" font-family="Arial, sans-serif" font-size="12" fill="#34495e">
    3. Vedtak og ikrafttredelse
  </text>
  <text x="650" y="405" text-anchor="middle" font-family="Arial, sans-serif" font-size="12" fill="#34495e">
    4. Implementering 1. mai
  </text>
  

  <path d="M 250 360 L 350 220 L 345 225 M 350 220 L 345 215" stroke="#95a5a6" stroke-width="2" fill="none"/>
  <path d="M 550 360 L 450 220 L 455 225 M 450 220 L 455 215" stroke="#95a5a6" stroke-width="2" fill="none"/>
  

  <rect x="300" y="450" width="200" height="30" fill="#e8f5e8" stroke="#27ae60" stroke-width="1" rx="5"/>
  <text x="400" y="470" text-anchor="middle" font-family="Arial, sans-serif" font-size="12" fill="#27ae60">
    Påvirker millioner av nordmenn
  </text>
</svg>
